img/feature-warranty.svg

<svg width="136" height="136" viewBox="0 0 136 136" fill="none" xmlns="http://www.w3.org/2000/svg">
<g filter="url(#filter0_d)">
<circle cx="67" cy="67" r="48" fill="white"/>
</g>
<path d="M89.7345 60.526C89.1527 58.8057 87.7547 57.7217 86.5211 56.7645C85.862 56.2537 85.2394 55.7707 84.8796 55.2974C84.513 54.8145 84.2232 54.0935 83.917 53.3295C83.3499 51.9168 82.7058 50.3165 81.2159 49.2769C79.7575 48.2579 77.9998 48.1631 76.449 48.0817C75.5774 48.0345 74.754 47.9906 74.1268 47.7946C73.5524 47.6166 72.8887 47.2023 72.1865 46.7633C70.8627 45.9366 69.3618 45 67.4992 45C65.6357 45 64.1366 45.9366 62.8138 46.7633C62.1107 47.2023 61.4479 47.6157 60.8725 47.7956C60.2463 47.9906 59.4219 48.0345 58.5494 48.0817C56.9995 48.165 55.2427 48.2579 53.7825 49.2769C52.2935 50.3165 51.6504 51.9168 51.0823 53.3286C50.7761 54.0926 50.4854 54.8145 50.1178 55.2992C49.7581 55.7735 49.1355 56.2564 48.4755 56.7673C47.2446 57.7235 45.8467 58.8066 45.2658 60.5251C44.6996 62.1954 45.1541 63.8448 45.5551 65.2995C45.7785 66.1098 45.9895 66.8738 45.9895 67.5C45.9895 68.1271 45.7785 68.8911 45.5551 69.7023C45.1541 71.1562 44.7005 72.805 45.2658 74.4768C45.8476 76.1952 47.2446 77.2778 48.4773 78.2341C49.1365 78.7454 49.759 79.2279 50.1188 79.7012C50.4854 80.1851 50.7752 80.9061 51.0823 81.671C51.6495 83.0841 52.2944 84.6844 53.7853 85.7259C55.2436 86.743 56.9995 86.8369 58.5494 86.9183C59.4219 86.965 60.2463 87.0094 60.8725 87.2044C61.4469 87.3834 62.1098 87.7977 62.811 88.2362C64.1348 89.0634 65.6357 90 67.4992 90C69.3627 90 70.8645 89.0634 72.1883 88.2362C72.8905 87.7977 73.5533 87.3843 74.1278 87.2044C74.754 87.0094 75.5783 86.965 76.4508 86.9183C78.0007 86.8359 79.7566 86.7421 81.2159 85.7249C82.7067 84.6844 83.3499 83.0823 83.9188 81.6682C84.2251 80.9052 84.5148 80.1833 84.8796 79.7026C85.2394 79.2279 85.862 78.7454 86.5211 78.235C87.7538 77.2787 89.1527 76.1952 89.7345 74.4768C90.3007 72.805 89.8452 71.1562 89.4442 69.7009C89.22 68.8911 89.0089 68.1253 89.0089 67.4991C89.0089 66.8729 89.22 66.1075 89.4442 65.2977C89.8452 63.8448 90.2998 62.1945 89.7345 60.526ZM85.8295 70.6989C86.0991 71.6794 86.3797 72.6938 86.1828 73.2738C85.9631 73.9238 85.0792 74.6091 84.2242 75.2719C83.4021 75.9091 82.5529 76.5674 81.8929 77.4367C81.2237 78.3188 80.8241 79.3117 80.4391 80.2707C80.0294 81.2878 79.6431 82.2487 79.0691 82.6497C78.4891 83.0557 77.4024 83.1129 76.2512 83.1747C75.1865 83.232 74.0856 83.2901 73.0132 83.6247C71.9773 83.9474 71.0755 84.51 70.2026 85.0548C69.2185 85.6696 68.2893 86.25 67.4992 86.25C66.7101 86.25 65.7808 85.6696 64.7976 85.0566C63.9247 84.5119 63.023 83.9474 61.9871 83.6256C60.9137 83.291 59.8137 83.232 58.749 83.1757C57.5978 83.1148 56.5111 83.0566 55.9321 82.652C55.3572 82.2505 54.9713 81.2897 54.5616 80.2725C54.1753 79.3135 53.7757 78.3197 53.1046 77.4367C52.4464 76.5683 51.5973 75.9091 50.7752 75.2719C49.921 74.61 49.0371 73.9238 48.8174 73.2747C48.6206 72.6938 48.9003 71.6794 49.1699 70.6975C49.4363 69.7311 49.7384 68.6343 49.7384 67.5009C49.7384 66.3675 49.4363 65.2716 49.1699 64.3039C48.9003 63.3234 48.6206 62.3099 48.8174 61.7276C49.0371 61.0789 49.9201 60.3937 50.7743 59.7318C51.5964 59.0932 52.4473 58.4335 53.1046 57.5661C53.7757 56.6821 54.1762 55.6883 54.5625 54.7284C54.9713 53.7122 55.3572 52.7522 55.9293 52.3526C56.5111 51.9456 57.5987 51.8875 58.7499 51.8257C59.8137 51.7685 60.9137 51.7094 61.9862 51.3766C63.023 51.0544 63.9256 50.49 64.7994 49.9452C65.7827 49.3291 66.711 48.75 67.4992 48.75C68.2884 48.75 69.2167 49.3291 70.2008 49.9434C71.0746 50.489 71.9773 51.0535 73.0132 51.3739C74.0866 51.7076 75.1856 51.7676 76.2494 51.8239C77.4006 51.8848 78.4882 51.9429 79.0691 52.3508C79.6431 52.7513 80.028 53.7103 80.4368 54.7266C80.8231 55.6865 81.2228 56.6803 81.8938 57.5642C82.5529 58.4312 83.4021 59.0904 84.2242 59.7281C85.0783 60.39 85.9622 61.0762 86.1828 61.7267C86.3797 62.3071 86.0991 63.3206 85.8295 64.3011C85.5621 65.2689 85.2591 66.3657 85.2591 67.5C85.2591 68.6343 85.5621 69.7311 85.8295 70.6989Z" fill="#083C6E"/>
<path d="M75.9362 67.5013C75.9362 72.1537 72.1516 75.9383 67.4992 75.9383C62.8467 75.9383 59.0622 72.1537 59.0622 67.5013C59.0622 62.8488 62.8467 59.0642 67.4992 59.0642H69.3741V55.3145H67.4992C60.7796 55.3145 55.3124 60.7817 55.3124 67.5013C55.3124 74.2209 60.7796 79.6881 67.4992 79.6881C74.2188 79.6881 79.686 74.2209 79.686 67.5013V65.6264H75.9362V67.5013Z" fill="#083C6E"/>
<path d="M65.6244 62.9753L62.9731 65.6265L67.4993 70.1521L77.6501 60.0018L74.9988 57.3506L67.4993 64.8502L65.6244 62.9753Z" fill="#083C6E"/>
<defs>
<filter id="filter0_d" x="0" y="0" width="136" height="136" filterUnits="userSpaceOnUse" color-interpolation-filters="sRGB">
<feFlood flood-opacity="0" result="BackgroundImageFix"/>
<feColorMatrix in="SourceAlpha" type="matrix" values="0 0 0 0 0 0 0 0 0 0 0 0 0 0 0 0 0 0 127 0"/>
<feOffset dx="1" dy="1"/>
<feGaussianBlur stdDeviation="10"/>
<feColorMatrix type="matrix" values="0 0 0 0 0 0 0 0 0 0 0 0 0 0 0 0 0 0 0.07 0"/>
<feBlend mode="normal" in2="BackgroundImageFix" result="effect1_dropShadow"/>
<feBlend mode="normal" in="SourceGraphic" in2="effect1_dropShadow" result="shape"/>
</filter>
</defs>
</svg>

<svg width="136" height="136" fill="none" xmlns="http://www.w3.org/2000/svg"><g filter="url(#prefix__a)"><circle cx="67" cy="67" r="48" fill="#fff"/></g><path d="M89.734 60.526c-.581-1.72-1.98-2.804-3.213-3.762-.659-.51-1.282-.993-1.641-1.467-.367-.482-.657-1.203-.963-1.967-.567-1.413-1.211-3.014-2.701-4.053-1.459-1.02-3.216-1.114-4.767-1.195-.872-.047-1.695-.091-2.322-.287-.575-.178-1.238-.593-1.94-1.032C70.862 45.937 69.361 45 67.498 45c-1.863 0-3.362.937-4.685 1.763-.703.44-1.366.853-1.941 1.033-.627.195-1.451.239-2.324.286-1.55.083-3.306.176-4.767 1.195-1.488 1.04-2.132 2.64-2.7 4.052-.306.764-.597 1.486-.964 1.97-.36.474-.983.957-1.643 1.468-1.23.956-2.628 2.04-3.21 3.758-.565 1.67-.11 3.32.29 4.774.224.81.434 1.575.434 2.201 0 .627-.21 1.391-.434 2.202-.4 1.454-.855 3.103-.29 4.775.583 1.718 1.98 2.8 3.212 3.757.66.511 1.282.994 1.642 1.467.366.484.656 1.205.963 1.97.568 1.413 1.212 3.013 2.703 4.055 1.459 1.017 3.215 1.11 4.764 1.192.873.047 1.697.091 2.324.286.574.18 1.237.594 1.938 1.032 1.324.827 2.825 1.764 4.688 1.764 1.864 0 3.366-.937 4.69-1.764.702-.438 1.364-.852 1.939-1.032.626-.195 1.45-.239 2.323-.286 1.55-.082 3.306-.176 4.765-1.193 1.49-1.04 2.134-2.643 2.703-4.057.306-.763.596-1.485.96-1.965.36-.475.983-.958 1.642-1.468 1.233-.956 2.632-2.04 3.213-3.758.567-1.672.111-3.32-.29-4.776-.224-.81-.435-1.576-.435-2.202 0-.626.211-1.391.435-2.201.401-1.453.856-3.104.29-4.772zM85.83 70.699c.27.98.55 1.995.353 2.575-.22.65-1.104 1.335-1.959 1.998-.822.637-1.671 1.295-2.331 2.165-.67.882-1.069 1.875-1.454 2.834-.41 1.017-.796 1.978-1.37 2.379-.58.406-1.667.463-2.818.525-1.065.057-2.165.115-3.238.45-1.036.322-1.938.885-2.81 1.43-.984.615-1.914 1.195-2.704 1.195-.789 0-1.718-.58-2.701-1.193-.873-.545-1.775-1.11-2.81-1.431-1.074-.335-2.174-.394-3.239-.45-1.151-.061-2.238-.12-2.817-.524-.575-.401-.96-1.362-1.37-2.38-.387-.959-.786-1.952-1.457-2.835-.659-.869-1.508-1.528-2.33-2.165-.854-.662-1.738-1.348-1.958-1.997-.196-.581.083-1.596.353-2.578.266-.966.568-2.063.568-3.196s-.302-2.23-.568-3.197c-.27-.98-.55-1.994-.353-2.576.22-.65 1.103-1.334 1.957-1.996.822-.639 1.673-1.298 2.33-2.166.672-.884 1.072-1.878 1.459-2.838.408-1.016.794-1.976 1.366-2.375.582-.407 1.67-.465 2.82-.527 1.065-.057 2.165-.117 3.237-.45 1.037-.322 1.94-.886 2.813-1.43.984-.617 1.912-1.196 2.7-1.196.79 0 1.718.58 2.702 1.193.874.546 1.776 1.11 2.812 1.43 1.074.335 2.173.395 3.236.45 1.152.062 2.24.12 2.82.528.574.4.959 1.36 1.368 2.376.386.96.786 1.953 1.457 2.837.659.867 1.508 1.526 2.33 2.164.854.662 1.738 1.348 1.959 1.999.197.58-.084 1.594-.354 2.574-.267.968-.57 2.065-.57 3.199s.303 2.231.57 3.199z" fill="#083C6E"/><path d="M75.936 67.501c0 4.653-3.784 8.437-8.437 8.437-4.652 0-8.437-3.784-8.437-8.437 0-4.652 3.785-8.437 8.437-8.437h1.875v-3.75H67.5c-6.72 0-12.187 5.468-12.187 12.187 0 6.72 5.468 12.187 12.187 12.187 6.72 0 12.187-5.467 12.187-12.187v-1.875h-3.75v1.875z" fill="#083C6E"/><path d="m65.624 62.975-2.65 2.651 4.525 4.526 10.151-10.15L75 57.35l-7.5 7.5-1.875-1.876z" fill="#083C6E"/><defs><filter id="prefix__a" x="0" y="0" width="136" height="136" filterUnits="userSpaceOnUse" color-interpolation-filters="sRGB"><feFlood flood-opacity="0" result="BackgroundImageFix"/><feColorMatrix in="SourceAlpha" values="0 0 0 0 0 0 0 0 0 0 0 0 0 0 0 0 0 0 127 0"/><feOffset dx="1" dy="1"/><feGaussianBlur stdDeviation="10"/><feColorMatrix values="0 0 0 0 0 0 0 0 0 0 0 0 0 0 0 0 0 0 0.07 0"/><feBlend in2="BackgroundImageFix" result="effect1_dropShadow"/><feBlend in="SourceGraphic" in2="effect1_dropShadow" result="shape"/></filter></defs></svg>
